X:1
T:12 Lieder
T:Aus der Jugendzeit
T:Moritz Hauptmann
T:Friedrich Rückert
T:Aus der Jugendzeit
T:CPDL - Creative Commons Attribution Non Commercial 3.0
T:CPDL - Creative Commons Attribution Non Commercial 3.0
C:Moritz Hauptmann
Z:Friedrich Rückert
Z:CPDL - Creative Commons Attribution Non Commercial 3.0
%%score [ ( 1 2 ) ( 3 4 ) ]
L:1/8
Q:1/4=80
M:2/4
K:B
V:1 treble-8 nm="Tenor"
V:2 treble-8 
V:3 bass nm="Bass"
V:4 bass 
V:1
"^Allegretto grazioso"!mf! d/e/ | .f.d .Bc/c/ | d>e .fd/d/ | gf | dB |!>(! c3!>)!!p! c/d/ | %6
w: 1.~Aus der|Ju- gend- zeit, aus der|Ju- gend- zeit klingt ein|Lied mir|im- mer-|dar; o wie|
w: 2.~Was die|Schwal- be sang, was die|Schwal- be sang, die den|Herbst und|Früh- ling|bringt; ob das|
w: Solo~~3.~„Als ich|Ab- schied nahm, als ich|Ab- schied nahm, wa- ren|Kist' und|Kas- ten|schwer; als ich|
w: 4.~~O du|Hei- mat- flur, o du|Hei- mat- flur, lass zu|dei- nem|heil'- gen|Raum mich noch|
 e!^!^B!<(! cd/!<)!e/ | fd!f! g2- | g2 !fermata!z z | z!p! .f .f z | z .f .f.F | %11
w: liegt so weit, o wie|liegt so weit,|_|was mein,|was mein war,|
w: Dorf ent- lang, ob das|Dorf ent- lang,|_|das jetzt,|das jetzt noch,|
w: wie- der- kam, als ich|wie- der- kam|_|war all',|war al- les,|
w: ein- mal nur, mich noch|ein- mal nur|_|ent- flieh'n,|ent- flie- hen,|
 z!mf!!<(! d!<)!!>(! e>!>)!A | B2 z |] %13
w: was mein einst|war.|
w: das jetzt noch|klingt?|
w: war al- les|leer.“|
w: ent- flieh'n im|Traum.|
V:2
 B/c/ | .d.B .FA/A/ | B>c .dB/B/ | BB | BB | A3 A/^B/ | c^^G A=B/c/ | dB =d2- | d2 x x | %9
w: |||||||||
w: |||||||||
w: |||||||||
w: |||||||||
 x .^d .d.e | x .d .c.e | x F c>F | F2 x |] %13
w: was mein einst,||||
w: das jetzt noch,||||
w: war al- les,||||
w: ent- flie- hen,||||
V:3
 z | z2 z!mf! F,/F,/ | .F,.F, .F,B,/A,/ | G,B, | F,F, |!>(! F,3!>)! z | %6
w: |1.~Aus der|Ju- gend- zeit, * *||||
w: |2.~Was die|Schwal- be sang, * *||||
w: |Solo~~3.~„Als ich|Ab- schied nahm, * *||||
w: |4.~~O du|Hei- mat- flur, * *||||
 z!p! F,/F,/!<(! F,F,/!<)!E,/ | D,D!f! B,2- | B,2 !fermata!z!p! z | z!p! .B, .A,.C | %10
w: o wie liegt, o wie|liegt so weit,|_||
w: ob das Dorf, ob das|Dorf ent- lang,|_||
w: als ich wie- der, ich|wie- der- kam|_||
w: mich noch ein- mal, noch|ein- mal nur|_||
 z .B, .A,!mf!.C | z!mf!!<(! B,!<)!!>(! A,>!>)!E, | D,2 z |] %13
w: |||
w: |||
w: |||
w: |||
V:4
 x | x2 x F,/E,/ | .D,.F, .B,,G,/F,/ | E,D, | B,,D, | F,3 x | x D,/D,/ E,D,/C,/ | B,,B, ^E,2- | %8
w: ||||||||
w: ||||||||
w: ||||||||
w: ||||||||
 E,2 x .F, | .F, z z .F, | .F,.F,, z F, | F,>F,, F,,F,, | B,,2 x |] %13
w: * was|mein, was|mein war, was|mein, was mein einst|war.|
w: * das|jetzt, das|jetzt noch, das|jetzt, das jetzt noch|klingt?|
w: * war|all', war|al- les, war|all', war al- les|leer.“|
w: * ent-|flieh'n, ent-|flie- hen, ent-|flieh'n, ent- flieh'n im|Traum.|

